22x22/actions/path-break-apart.svg

<svg xmlns="http://www.w3.org/2000/svg" width="22" height="22"><defs><style id="current-color-scheme" type="text/css"></style></defs><path style="fill:currentColor;color:#323a41" d="M5.5 0A5.5 5.5 0 0 0 0 5.5 5.5 5.5 0 0 0 5.5 11 5.5 5.5 0 0 0 11 5.5 5.5 5.5 0 0 0 5.5 0zm0 1A4.5 4.5 0 0 1 10 5.5 4.5 4.5 0 0 1 5.5 10 4.5 4.5 0 0 1 1 5.5 4.5 4.5 0 0 1 5.5 1zM5 5v4h1V6h3V5zm7 0v1h2v8H6v-2H5v3h10V5z" transform="translate(3 3)"/></svg>

<svg xmlns="http://www.w3.org/2000/svg" width="22" height="22" version="1.1">
 <defs>
  <style id="current-color-scheme" type="text/css">
   .ColorScheme-Text { color:#323a41; } .ColorScheme-Highlight { color:#4285f4; } .ColorScheme-NeutralText { color:#ff9800; } .ColorScheme-PositiveText { color:#4caf50; } .ColorScheme-NegativeText { color:#f44336; }
  </style>
 </defs>
 <g transform="translate(3,3)">
  <path style="fill:currentColor" class="ColorScheme-Text" d="M 5.5,0 A 5.5,5.5 0 0 0 0,5.5 5.5,5.5 0 0 0 5.5,11 5.5,5.5 0 0 0 11,5.5 5.5,5.5 0 0 0 5.5,0 Z M 5.5,1 A 4.5,4.5 0 0 1 10,5.5 4.5,4.5 0 0 1 5.5,10 4.5,4.5 0 0 1 1,5.5 4.5,4.5 0 0 1 5.5,1 Z M 5,5 V 9 H 6 V 6 H 9 V 5 Z M 12,5 V 6 H 14 V 14 H 6 V 12 H 5 V 15 H 15 V 5 Z"/>
 </g>
</svg>
